X:1
T:Meet Me There
T:Meet Me There
T:S. L. Howard
T:William Thomas Dale, 1893
T:Public Domain Courtesy of the Cyber Hymnal™
T:Public Domain Courtesy of the Cyber Hymnal™
C:S. L. Howard
Z:Public Domain
Z:Courtesy of the Cyber Hymnal™
%%score ( 1 2 ) ( 3 4 )
L:1/8
Q:1/4=90
M:4/4
K:F
V:1 treble 
V:2 treble 
V:3 bass 
V:4 bass 
V:1
 [CF]>[CG] | [FA]>[FA] [FA]>[FA] [FA]2 [FA]>[GB] | [Ac]>[Ac] [Ac]>[Ac] [Ac]2 [GB]>[FA] | %3
w: 1.~I am|on my jour- ney home, Where my|Sav- ior beck- ons, “Come,” And the|
w: 2.~In that|land be- yond the sky, There will|be no pain or sigh, Tears shall|
w: 3.~Soon our|tri- als will be o’er, And we’ll|stand on Ca- naan’s shore, Safe with|
w: 4.~What a|meet- ing there will be, When our|Sav- ior’s face we’ll see, And with|
 [EG]>[EG] [EG]>[FA] [GB]2 [Ed]>[Ed] | (c4 A2) [CF]>[CG] | [FA]>[FA] [FA]>[FA] [FA]2 [FA]>[GB] | %6
w: saints no more shall roam, Meet me|there; * Where the|ma- ny man- sions are, And no|
w: ne- ver dim the eye, Meet me|there; * Oh, the|joy of meet- ing there, Where no|
w: those who’ve gone be- fore; Meet me|there; * There the|saints shall ne- ver part, Sor- row|
w: loved ones e- ver be; Meet me|there. * To that|land let’s tra- vel on, Till we|
 [Ac]>[Ac] [Ac]>[Ac] [Ac]2 [GB]>[FA] | [EG]>[EG] [EG]>[FA] [GB]2 [FA]>[EG] | F6 || %9
w: sick- ness en- ters there, Where the|skies are al- ways fair, Meet me|there.|
w: heart is bowed with care, And each|mind is freed from fear, Meet me|there.|
w: ne’er shall rend the heart; Will you|now to glo- ry start? Meet me|there.|
w: stand be- fore the throne, And re-|ceive a shin- ing crown; Meet me|there.|
"^Refrain" [FA]>[GB] | [Ac]6 (3([df][ce])[Bd] | [Ac]6 [GB]>[FA] | %12
w: |||
w: Meet me|there, meet * me|there, O- ver|
w: |||
w: |||
 [EG]>[EG] [EG]>[FA] [GB]>[GB] [Bd]>[Bd] | ([Ac]4 [FA]2) [CF]>[CG] | %14
w: ||
w: in the land of pro- mise, Meet me|there; * On the|
w: ||
w: ||
 [FA]>[FA] [FA]>[FA] [FA]2 [FA]>[GB] | [Ac]>[Ac] [Ac]>[Ac] [Ac]2 [GB]>[FA] | %16
w: ||
w: bright and sun- ny shore, With our|loved ones gone be- fore, And with|
w: ||
w: ||
 [EG]>[EG] [EG]>[FA] [GB]2 [FA]>[EG] | F6 |] %18
w: ||
w: those now cross- ing o’er, Meet me|there.|
w: ||
w: ||
V:2
 x2 | x8 | x8 | x8 | F6 x2 | x8 | x8 | x8 | (F2 D>D C2) || x2 | x8 | x8 | x8 | x8 | x8 | x8 | x8 | %17
 (F2 D>D C2) |] %18
V:3
 [F,A,]>[F,B,] | [F,C]>[F,C] [F,C]>[F,C] [F,C]2 [F,C]>[F,C] | %2
w: ~ ~|~ ~ ~ ~ ~ ~ ~|
 [F,F]>[F,F] [F,F]>[F,F] [F,C]2 [E,C]>[F,C] | [C,C]>[C,C] [C,C]>[C,C] [C,C]2 [C,B,]>[C,B,] | %4
w: ~ ~ ~ ~ ~ ~ ~|~ ~ ~ ~ ~ ~ ~|
 (A,4 C2) [F,A,]>[G,B,] | [F,C]>[F,C] [F,C]>[F,C] [F,C]2 [F,C]>[F,C] | %6
w: ~ * ~ ~|~ ~ ~ ~ ~ ~ ~|
 [F,F]>[F,F] [F,F]>[F,F] [F,C]2 [E,C]>[F,C] | [C,C]>[C,C] [C,C]>[C,C] [C,C]2 [C,C]>[C,B,] | %8
w: ~ ~ ~ ~ ~ ~ ~|~ ~ ~ ~ ~ ~ ~|
 (A,2 B,>B, A,2) || z2 | z2 [F,C]>[F,C] [F,C]2 z2 | z2 [F,F]>[F,F] [F,C]2 [E,C]>[F,C] | %12
w: ~ * * *||Meet me there,|meet me there ~ ~|
 [C,C]>[C,C] [C,C]>[C,C] [C,C]>[C,C] [C,C]>[C,C] | z2 [F,C]>[F,C] [F,C]2 [F,A,]>[G,B,] | %14
w: ~ ~ ~ ~ ~ ~ ~ ~|meet me there; * *|
 [F,C]>[F,C] [F,C]>[F,C] [F,C]2 [F,C]>[F,C] | [F,F]>[F,F] [F,F]>[F,F] [F,C]2 [E,C]>[F,C] | %16
w: ||
 [C,C]>[C,C] [C,C]>[C,C] [C,C]2 [C,C]>[C,B,] | (A,2 B,>B, A,2) |] %18
w: ||
V:4
 x2 | x8 | x8 | x8 | F,6 x2 | x8 | x8 | x8 | F,6 || x2 | x8 | x8 | x8 | x8 | x8 | x8 | x8 | F,6 |] %18

